files/resources/svgs/general/m-star.svg

<svg width="20" height="20" viewBox="0 0 20 20" fill="none" xmlns="http://www.w3.org/2000/svg">
<path fill-rule="evenodd" clip-rule="evenodd" d="M10.868 2.8837C10.5469 2.11168 9.45329 2.11168 9.13219 2.8837L7.3014 7.28547L2.54932 7.66644C1.71586 7.73326 1.37791 8.77337 2.01291 9.31732L5.63349 12.4187L4.52735 17.056C4.33334 17.8693 5.21812 18.5121 5.93167 18.0763L10.0001 15.5913L14.0686 18.0763C14.7821 18.5121 15.6669 17.8693 15.4729 17.056L14.3667 12.4187L17.9873 9.31732C18.6223 8.77337 18.2844 7.73326 17.4509 7.66644L12.6988 7.28547L10.868 2.8837Z" fill="#0F172A"/>
</svg>

<svg xmlns="http://www.w3.org/2000/svg" viewBox="0 0 20 20" fill="currentColor" aria-hidden="true">
  <path fill-rule="evenodd" d="M10.868 2.884c-.321-.772-1.415-.772-1.736 0l-1.83 4.401-4.753.381c-.833.067-1.171 1.107-.536 1.651l3.62 3.102-1.106 4.637c-.194.813.691 1.456 1.405 1.02L10 15.591l4.069 2.485c.713.436 1.598-.207 1.404-1.02l-1.106-4.637 3.62-3.102c.635-.544.297-1.584-.536-1.65l-4.752-.382-1.831-4.401z" clip-rule="evenodd"/>
</svg>
